!!!!SEGMENT: pl-wtm--r-1227--015_lodwigowski-edward-stefan--gdzie-lubi.krn
!!!cenid: 18xx:1955
!!!COM: Łodwigowski, Edward Stefan
!!!COM-rismid: pe30111147
!!!CDT: 1815/08/14-1895/11/12
!!!CNT: Polish
!!!OTL: Gdzie lubi
!!!PDT:
!!!AGN:
!!!SMS-siglum: PL-Wtm
!!!SMS-shelfmark: R 1227
!!!SMS-shelfwork: 015 W
!!!SMS-variant:
!!!SMS-altvar:
!!!NIFC-rismid: 1001084115
!!!URL-scan: http://repozytorium.nifc.pl/skany/pl-wtm-nut--r1226-1227
!!!ONB-nifc: UWAGA: No. 87
!!!OMD: Allegretto
!!!key:
**kern	**fing	**kern	**fing	**dynam
*part1	*part1	*part1	*part1	*part1
*staff2	*staff2	*staff1	*staff1	*
*Iforte	*	*Iforte	*	*
*I"Fortepian	*	*I"Fortepian	*	*
*clefF4	*	*clefG2	*	*
*k[f#]	*	*k[f#]	*	*
*g:	*	*g:	*	*
*M3/4	*	*M3/4	*	*
*all\right	*	*all\right	*	*
=1	=1	=1	=1	=1
!	!	!LO:TX:a:Bi:t=No 87.	!	!
!	!	!LO:TX:a:i:t=Gdzie lubi. I. F. Dobrzyńskiego	!	!
(8G\L	4	(8g/L	1	p
8A\J	.	8a/J	.	.
4B\	.	4b\	.	.
4c\	.	4cc\	1	.
=2	=2	=2	=2	=2
8c#X\L	3	8cc#X\L	2	.
8e\J	.	8ee\J	.	.
*2\right	*	*2\right	*	*
2d\)	.	2dd\)	.	.
=3	=3	=3	=3	=3
(8G\L	5	(8g/L	1	.
8A\J	.	8a/J	.	.
4B\	.	4b\	.	.
4c\	1	4cc\	.	.
=4	=4	=4	=4	=4
8c#X\L	3	8cc#X\L	3	.
8e\J	.	8ee\J	.	.
2d\)	.	2dd\)	.	.
!!LO:LB:g=original
*clefG2	*	*	*	*
=5	=5	=5	=5	=5
*^	*	*	*	*
!	!	!	!LO:TX:a:Bi:t=Piu vivace	!	!
!LO:N:vis=2	!	!	!LO:TUP:a:problem:klamra łukowa	!	!
4A/	2.A\	.	12a\L	1	mf
.	.	.	12b\	.	.
.	.	.	12a\J	.	.
4g 4c#X/	.	.	(4gg\	5	.
4g 4c#/	.	.	8ff#\L	.	.
.	.	.	8ee\J	.	.
=6	=6	=6	=6	=6	=6
!LO:N:vis=2	!	!	!	!	!
4d/	2.d\	.	8ff#|\L)	.	.
.	.	.	16r	.	.
.	.	.	16cc#X\Jk	3	.
4f# 4d/	.	.	4dd\	4	.
4f# 4d/	.	.	4b\	.	.
=7	=7	=7	=7	=7	=7
!LO:N:vis=2	!	!	!LO:TUP:a:problem:klamra łukowa, łuczek zamiast numeru	!	!
4A/	2.A\	.	12a\L	.	.
.	.	.	12b\	.	.
.	.	.	12a\J	.	.
4g 4c#X/	.	.	4gg\	.	.
4g 4c#/	.	.	(8ff#\L	3	.
.	.	.	8ee\J	.	.
*v	*v	*	*	*	*
=8	=8	=8	=8	=8
4f# 4d'/	.	4dd'\)	.	.
4f# 4d|/	.	4ddd 4aa 4ff#|\	.	sf
4r	.	4r	.	.
*clefF4	*	*	*	*
=9	=9	=9	=9	=9
!	!	!LO:TX:a:B:t=tempo 1o	!	!
(8G\L	.	(8g/L	.	p
8A\J	.	8a/J	.	.
4B\	.	4b\	.	.
4c\	.	4cc\	.	.
=10	=10	=10	=10	=10
8c#X\L	.	8cc#X\L	.	.
8e\J	.	8ee\J	.	.
2d\)	.	2dd\)	.	.
!!LO:LB:g=original
=11	=11	=11	=11	=11
(8G\L	.	(8g/L	.	.
8A\J	.	8a/J	.	.
4B\	.	4b\	.	.
4c\	.	4cc\	.	.
=12	=12	=12	=12	=12
8c#X\L	.	8cc#X\L	.	.
8e\J	.	8ee\J	.	.
2d;\)	.	2dd;\)	.	.
=13	=13	=13	=13	=13
*^	*	*	*	*
!LO:N:vis=2	!	!	!LO:TX:a:Bi:t=piu vivace	!	!
4AA\	2.AA/	.	8.cc#X\L	3	f
.	.	.	16cc#\Jk	.	.
4G 4C#X\	.	.	(4b\	.	.
4G 4C#\	.	.	4a\)	.	.
=14	=14	=14	=14	=14	=14
!LO:N:vis=2	!	!	!	!	!
4D\	2.D/	.	(8ff#\L	5	.
.	.	.	8cc#X\J	.	.
4A 4F#\	.	.	4dd\	.	.
4A 4F#\	.	.	4b\)	.	.
=15	=15	=15	=15	=15	=15
!LO:N:vis=2	!	!	!	!	!
4AA\	2.AA/	.	8.a/L	1	.
.	.	.	16a/Jk	3	.
4E 4C#X\	.	.	(4.g#X/	2	>
4E 4C#\	.	.	.	.	.
.	.	.	8gn/	1	.
=16	=16	=16	=16	=16	=16
!LO:N:vis=2	!	!	!	!	!
4D\	2.D/	.	8f#/L	3	.
.	.	.	8e/J	.	.
4A 4F#\	.	.	4f#/	.	.
.	.	.	.	.	]
4A 4F#\	.	.	8d/)	.	.
.	.	.	8r	.	.
!!LO:LB:g=original
=17	=17	=17	=17	=17	=17
!LO:N:vis=2	!	!	!	!	!LO:DY:rj
4AA\	2.AA/	.	8.ccc#X\L	.	f
.	.	.	16ccc#\Jk	.	.
4G 4C#X\	.	.	(4bb\	.	.
4G 4C#\	.	.	4aa\)	.	.
*v	*v	*	*	*	*
=18	=18	=18	=18	=18
4F# 4D|\	.	8.fff#\L	5	.
.	.	16ccc#X\Jk	2	.
(2E#X [>2D (2GG#X/	.	(8eee\L	4	.
.	.	8ddd\	.	.
.	.	8ccc#\	.	.
.	.	8bb\J)	.	.
=19	=19	=19	=19	=19
4F# 4D] 4AA/))	.	(8aa\L	4	.
.	.	8gg#X\	.	.
4F# 4D 4AA'/	.	8bb\	.	.
.	.	8aa\	.	.
4G 4C#X 4AA'/	.	8ggn\	.	.
.	.	8ee\J)	2	.
=20	=20	=20	=20	=20
4F# 4D'\	.	4dd'\	.	.
4F# 4D|\	.	4ddd 4ff#|\	.	sf
4r	.	4r	.	.
=21	=21	=21	=21	=21
*^	*	*	*	*
!LO:N:vis=2	!	!	!	!	!LO:DY:rj
4D\	2.D/	.	(8a\L	.	f
.	.	.	8b\J	.	.
4cn 4A 4F#\	.	.	4.cc\	.	.
4c 4A 4F#\	.	.	.	.	.
.	.	.	8cc#X\	.	.
=22	=22	=22	=22	=22	=22
!LO:N:vis=2	!	!	!	!	!
4G\	2.G/	.	8ee\L	5	.
.	.	.	8dd\J	.	.
4d 4B\	.	.	4b\	.	.
4d 4B\	.	.	4g\)	.	.
!!LO:LB:g=original
=23	=23	=23	=23	=23	=23
!LO:N:vis=2	!	!	!	!	!LO:DY:rj
4D\	2.D/	.	(8a\L	2	p
.	.	.	8b\J	.	.
4c 4F#\	.	.	4.cc\	1	.
4c 4F#\	.	.	.	.	.
.	.	.	8cc#X\	.	.
=24	=24	=24	=24	=24	=24
!LO:N:vis=2	!	!	!	!	!
4G\	2.G/	.	8ee-X\L	4	.
.	.	.	8dd\J	.	.
4d 4B-X\	.	.	4b-X/	.	.
4d 4B-\	.	.	4g/)	.	.
=25	=25	=25	=25	=25	=25
!LO:N:vis=2	!	!	!LO:TX:a:i:t=poco ralentan	!	!
4BB-\	2.BB-/	.	8b-X/L	3	.
.	.	.	(8b-/J	.	.
4G 4D\	.	.	4a/	.	.
4G 4D\	.	.	4g/	.	.
=26	=26	=26	=26	=26	=26
!LO:N:vis=2	!	!	!	!	!
4C\	2.C/	.	4b-X/	.	.
4A 4E-X\	.	.	4a/)	.	.
!	!	!	!LO:TX:a:i:t=e sempre piu ralentando:dur=23q:ext=cd	!	!
4A 4E-\	.	.	4r	.	.
=27	=27	=27	=27	=27	=27
!LO:N:vis=2	!	!	!	!	!
4D\	2.D/	.	8.a/L	2	.
.	.	.	16a/Jk	.	.
4A 4F#\	.	.	(4.dd\	5	.
4c 4F#\	.	.	.	.	.
.	.	.	8a\	.	.
=28	=28	=28	=28	=28	=28
!LO:N:vis=2	!	!	!	!	!
4E-\	2.E-/	.	4cc\	.	.
4B-X 4G\	.	.	4b-X\)	.	.
4B- 4G\	.	.	4r	.	.
!!LO:LB:g=original
=29	=29	=29	=29	=29	=29
!LO:N:vis=2	!	!	!	!	!
4BB-\	2.BB-/	.	8b-X\L	.	.
.	.	.	8b-\J	.	.
4G 4D\	.	.	(4a/	.	.
4G 4D\	.	.	4g/	.	.
=30	=30	=30	=30	=30	=30
!LO:N:vis=2	!	!	!	!	!
4C\	2.C/	.	4b-X/	.	.
4A 4G 4E-X\	.	.	4a/)	.	.
4A 4G 4E-\	.	.	4r	.	.
=31	=31	=31	=31	=31	=31
!LO:N:vis=2	!	!	!	!	!
4D\	2.D/	.	8.a/L	.	.
.	.	.	16a/Jk	.	.
4A 4F#\	.	.	(<4.dd\	.	.
4c 4A\	.	.	.	.	.
.	.	.	8f#/)	.	.
=32	=32	=32	=32	=32	=32
4r	[2.G\	.	4a'/	.	.
*	*	*	*	*below	*
4d 4B-X/	.	.	[2g^^/	3	.
4e-X 4c/	.	.	.	.	.
=33	=33	=33	=33	=33	=33
*	*	*	*	*above	*
*	*	*	*	*ela	*
4d 4B-X/	2G\]	.	2.g/_	3-4	.
*	*	*	*	*Xela	*
4c 4A/	.	.	.	.	.
!	!	!	!	!	!LO:HP:t=dimi
4B- 4G/	4rBByy	.	.	.	>
=34	=34	=34	=34	=34	=34
[2c (<2A/	[2D\	.	4g/]	.	.
.	.	.	4f#X/	.	.
4c] 4F#/)	4D\]	.	[4d/	.	.
*v	*v	*	*	*	*
=35	=35	=35	=35	=35
4Bn 4G\	.	2.g 2.d;/]	.	.
2GG;</	.	.	.	.
==	==	==	==	==
*-	*-	*-	*-	*-
!!!system-decoration: {p1}
!!!RDF**kern: > = above
!!!RDF**kern: < = below
!!!RDF**kern: | = vertical stroke
!!!AIN: 1 forte
!!!ENC: Andrzej Kubiczek
!!!END: 2021-05-02
!!!ENC: Marcin Jachim
!!!END: 2021-04-17
